X:2
T:MERRY LADS OF AYER -- REEL.
C:SCOTCH.
B:Coles
Z:John Walsh <walsh:mat:h.ubc.ca>
R:reel
M:C|
L:1/8
K:D
ug"^Segno"|vfed"4"e dAAg|(fe).d.f (g/a/b) ag|fed"4"e dAAd|(Bd) AF
(FE) Eg|\
fed"4"e dAAg|(fe)df (g/a/b) ag|fed"4"e dAAd|BdAF (FE)E||
uf|vdfab afef|dfag a2 (fe)|dfab afef|gbaf feef|\
dfab afef|dfab a2 (fe)|df"1"a"4"d' "1"a"3"f"1"d"3"f|\
"2"gbfa efga "_D.S.""^Segno"||
